symbolic/22x22/actions/edit-clone.svg

<svg xmlns="http://www.w3.org/2000/svg" width="22" height="22"><defs><style id="current-color-scheme" type="text/css"></style></defs><path style="fill:currentColor;color:#323a41" d="M1 1v9h4V5h5V1zm5 5v9h9V6zm4.5 1S12 7 12 8.5V10h.5c.5 0 .5.5.5.5v3s0 .5-.5.5h-4c-.5 0-.5-.5-.5-.5v-3s0-.5.5-.5H9V8.5C9 7 10.5 7 10.5 7zm0 1c-.5 0-.5.5-.5.5V10h1V8.5s0-.5-.5-.5z" transform="translate(3 3)"/></svg>

<svg xmlns="http://www.w3.org/2000/svg" width="22" height="22" version="1.1">
 <defs>
  <style id="current-color-scheme" type="text/css">
   .ColorScheme-Text { color:#323a41; } .ColorScheme-Highlight { color:#4285f4; } .ColorScheme-NeutralText { color:#ff9800; } .ColorScheme-PositiveText { color:#4caf50; } .ColorScheme-NegativeText { color:#f44336; }
  </style>
 </defs>
 <g transform="translate(3,3)">
  <path style="fill:currentColor" class="ColorScheme-Text" d="M 1,1 V 10 H 5 V 5 H 10 V 1 Z M 6,6 V 15 H 15 V 6 Z M 10.5,7 C 10.5,7 12,7 12,8.5 V 10 H 12.5 C 13,10 13,10.5 13,10.5 V 13.5 C 13,13.5 13,14 12.5,14 H 8.5 C 8,14 8,13.5 8,13.5 V 10.5 C 8,10.5 8,10 8.5,10 H 9 V 8.5 C 9,7 10.5,7 10.5,7 Z M 10.5,8 C 10,8 10,8.5 10,8.5 V 10 H 11 V 8.5 C 11,8.5 11,8 10.5,8 Z"/>
 </g>
</svg>
